X: 33458
T: Races At Carrick, The
R: jig
M: 6/8
K: Dmajor
g|fdB Bcd|ecA A2 G|FAA def|gfg bag|
fdB Bcd|ecA A2 G|FAA def|gec d2:|
e|~f3 fed|faa a2 f|gfg Bcd|ecA A2e|
~f3 fed|faa agf|gfg bag|fdd d2:|

